!!!COM: Schubert, Franz
!!!CDT: 1797/01/31-1828/11/19
!!!SCT: D. 365
!!!OPR: 36 Originaltänze
!!!OPS: 9
!!!ONM: 10
**kern	**kern	**dynam
*part1	*part1	*part1
*staff2	*staff1	*
*I"Klavier	*	*
*I'Klav.	*	*
*clefF4	*clefG2	*
*k[b-e-a-d-]	*k[b-e-a-d-]	*
*M3/4	*M3/4	*
=1	=1	=1
*A-:	*A-:	*
4r	([4cc	.
=	=	=
8D-L	4cc]	.
8e-J	.	.
8E-L	4dd-	.
8e-J	.	.
8GL	4b-)	.
8e-J	.	.
=	=	=
8D-L	(2g	.
8e-J	.	.
8E-L	.	.
8e-J	.	.
8GL	8ffL	.
8e-J	8ggJ)	.
=	=	=
8CL	(4bb-	.
8e-J	.	.
8E-L	4aa-	.
8e-J	.	.
8A-L	4ee-)	.
8e-J	.	.
=	=	=
8AA-L	2cc	.
8e-J	.	.
8E-L	.	.
8e-J	.	.
8A-L	([4ccc	.
8e-J	.	.
=	=	=
8D-L	4ccc]	.
8e-J	.	.
8E-L	4ddd-	.
8e-J	.	.
8GL	4bb-)	.
8e-J	.	.
!!linebreak:original
=	=	=
8D-L	2gg	.
8e-J	.	.
8E-L	.	.
8e-J	.	.
*	*8va	*
8GL	(8fffL	.
8e-J	8gggJ	.
=	=	=
8CL	4bb- 4bbb-	.
8e-J	.	.
8E-L	4aa-) 4aaa-	.
8e-J	.	.
4E- 4G 4d-	4ee- 4eee-	.
=	=	=
4A- 4c	4cc 4ccc	.
*	*X8va	*
4AA-	4r	.
=:|!|:	=:|!|:	=:|!|:
4r	4ee-	.
=	=	=
4D-	(4een	>
4G 4B- 4f	4ff	.
4G 4B- 4f	4dd-)	]
=	=	=
4D-	2b-	.
4G 4B- 4e-	.	.
4G 4B- 4e-	(8ccL	.
.	8dd-J	.
=	=	=
4C	4ddn	.
4A- 4c 4e-	4ee-	.
4A- 4c 4e-	4cc)	.
!!linebreak:original
=	=	=
4AA-	2a-	.
4A- 4c 4e-	.	.
4C 4A-	4g-X 4a- 4ee-	.
=	=	=
*^	*^	*
4D-	2D-	(4ee-	2f 2a-	.
4A-	.	4dd-	.	.
4A-	4AA-	4a- 4cc	4e-	.
=	=	=	=	=
4GG	2GG	4cc	2d- 2e-	.
4E-	.	4b-	.	.
4E-	4A-	4a-)	4c 4e-	.
=	=	=	=	=
4r	2.EE-	4e-	4c 4e-	.
4E-	.	(8fL	4dn	.
.	.	8a-J	.	.
4E-	.	8gL	4d-X	.
.	.	8b-J)	.	.
*v	*v	*	*	*
=	=	=	=
4AA- 4E-	4a-	4c	.
4AAA-	4r	4r	.
*	*v	*v	*
=:|!	=:|!	=:|!
*-	*-	*-
!!!system-decoration: {(s1,s2)}
!!!AGN: Walzer
!!!EED: Wolfgang Drescher
!!!END: 2025/12/03
!!!ENC: Florian Moldaschl
!!!EEV: 2025/12/03
!!!title: @{OPR}, @{SCT} №@{ONM}